core/assets/icons/award.outline.svg

<svg width="24" height="24" viewBox="0 0 24 24" xmlns="http://www.w3.org/2000/svg"><g id="award=outline"><path id="Vector" d="M17 15.245V22.117C17 22.2054 16.9766 22.2923 16.932 22.3688C16.8875 22.4452 16.8235 22.5085 16.7465 22.5521C16.6696 22.5957 16.5824 22.6181 16.4939 22.617C16.4055 22.616 16.3189 22.5914 16.243 22.546L12 20L7.757 22.546C7.68104 22.5915 7.59436 22.616 7.50581 22.617C7.41727 22.6181 7.33004 22.5956 7.25304 22.5518C7.17605 22.5081 7.11205 22.4447 7.06759 22.3681C7.02313 22.2915 6.9998 22.2045 7 22.116V15.246C5.70615 14.2101 4.76599 12.7979 4.30946 11.2045C3.85293 9.61117 3.90256 7.91536 4.45149 6.35145C5.00043 4.78753 6.02156 3.43272 7.37378 2.47425C8.726 1.51578 10.3425 1.00098 12 1.00098C13.6575 1.00098 15.274 1.51578 16.6262 2.47425C17.9784 3.43272 18.9996 4.78753 19.5485 6.35145C20.0974 7.91536 20.1471 9.61117 19.6905 11.2045C19.234 12.7979 18.2939 14.2101 17 15.246V15.245ZM9 16.418V19.468L12 17.668L15 19.468V16.418C14.0468 16.8035 13.0282 17.0011 12 17C10.9718 17.0011 9.95316 16.8035 9 16.418V16.418ZM12 15C13.5913 15 15.1174 14.3678 16.2426 13.2426C17.3679 12.1174 18 10.5913 18 8.99997C18 7.40868 17.3679 5.88255 16.2426 4.75733C15.1174 3.63212 13.5913 2.99997 12 2.99997C10.4087 2.99997 8.88258 3.63212 7.75736 4.75733C6.63214 5.88255 6 7.40868 6 8.99997C6 10.5913 6.63214 12.1174 7.75736 13.2426C8.88258 14.3678 10.4087 15 12 15V15Z"/></g></svg>

<svg xmlns="http://www.w3.org/2000/svg" width="24" height="24" fill="none"><path fill="#191C22" d="M17 15.245v6.872a.5.5 0 0 1-.757.429L12 20l-4.243 2.546a.5.5 0 0 1-.757-.43v-6.87a8 8 0 1 1 10 0v-.001Zm-8 1.173v3.05l3-1.8 3 1.8v-3.05A7.978 7.978 0 0 1 12 17a7.978 7.978 0 0 1-3-.582ZM12 15a6 6 0 1 0 0-12 6 6 0 0 0 0 12Z"/></svg>
